X:1
T:Candy Kisses
M:4/4
L:1/4
K:C
 E G| E C3-| C2 A c| A2 F2-| F c c A| G4-| G E E/2D/2 C| D4-| D2 E G|\
 E C3-| C2 A c| A2 F2-| F c c A| G2 E2-| E z B,/2C/2 D| C4-| C z D E|\
 F2 F2-| F2 A c| A2 G2-| G z E _E| D2 D2-| D2 ^F A| G4-| G z E G| E C3-|\
 C2 A c| A2 F2-| F c c A| G4-| G C B, D| C4-| C||
